X:46
T:Bourton Assembly
M:2/4
L:1/8
B:Thompson's Compleat Collection of 200 Favourite Country Dances, vol. 3 (London, 1773)
Z:Transcribed and edited by Flynn Titford-Mock, 2007
Z:abc's:AK/Fiddler's Companion
K:G
G>G GAB | d>ed>B | c>dc>B | A/A/A A2 | G>G GAB | d>ed>B | c>d cBA | G/G/G G2 :|
|: d>d def | g>fe>d | d>d def | gfe d>B | c>e dcB | A>ABG | Bcd efg | B>A G2 :|

